logo/eclipse.svg

<svg xmlns="http://www.w3.org/2000/svg" width="256" height="240" viewBox="0 0 256 240" preserveAspectRatio="xMidYMid"><path fill="#FFF" d="M70.4 153H31.3c5.1 17.8 14.8 33.7 28.8 47.8 22.5 22.5 49.4 33.7 81 33.7 6.3 0 12.4-.5 18.3-1.4 23.8-3.6 44.6-14.3 62.4-32.3 14.2-14.1 23.9-30 29.1-47.8H70.4zM48.8 99.9H28.4c-.8 4.5-1.3 9.1-1.5 13.8h228.4c-.2-4.7-.8-9.3-1.5-13.8M26.9 126.5c.2 4.7.7 9.3 1.5 13.8H253.8c.7-4.5 1.3-9.1 1.5-13.8M250.9 87.1c-5.2-17.8-14.9-33.8-29.1-48-17.8-17.7-38.5-28.4-62.2-32-6-.9-12.1-1.4-18.5-1.4-31.6 0-58.5 11.2-81 33.4-14.1 14.2-23.7 30.2-28.8 48"/><path fill="#FFF" d="M20.1 120.1C20.1 59.8 65.4 9.6 124.4.8c-1.5 0-3-.1-4.5-.1C53.8.7.2 54.1.2 120.1c0 65.9 53.6 119.4 119.7 119.4 1.5 0 3-.1 4.5-.1-59-8.8-104.3-59-104.3-119.3z"/></svg>

<svg xmlns="http://www.w3.org/2000/svg" xmlns:xlink="http://www.w3.org/1999/xlink" width="256" height="240" viewBox="0 0 256 240" version="1.1" preserveAspectRatio="xMidYMid">
  <path fill="#FFFFFF" d="M70.4 153L31.3 153C36.4 170.8 46.1 186.7 60.1 200.8 82.6 223.3 109.5 234.5 141.1 234.5 147.4 234.5 153.5 234 159.4 233.1 183.2 229.5 204 218.8 221.8 200.8 236 186.7 245.7 170.8 250.9 153L235 153 211.8 153 70.4 153 70.4 153Z"/>
  <path fill="#FFFFFF" d="M48.8 99.9L28.4 99.9C27.6 104.4 27.1 109 26.9 113.7L51.2 113.7 63.4 113.7 239.2 113.7 255.3 113.7C255.1 109 254.5 104.4 253.8 99.9"/>
  <path fill="#FFFFFF" d="M26.9 126.5C27.1 131.2 27.6 135.8 28.4 140.3L49.6 140.3 65.7 140.3 237.8 140.3 253.8 140.3C254.5 135.8 255.1 131.2 255.3 126.5"/>
  <path fill="#FFFFFF" d="M250.9 87.1C245.7 69.3 236 53.3 221.8 39.1 204 21.4 183.3 10.7 159.6 7.1 153.6 6.2 147.5 5.7 141.1 5.7 109.5 5.7 82.6 16.9 60.1 39.1 46 53.3 36.4 69.3 31.3 87.1"/>
  <path fill="#FFFFFF" d="M20.1 120.1C20.1 59.8 65.4 9.6 124.4 0.8 122.9 0.8 121.4 0.7 119.9 0.7 53.8 0.7 0.2 54.1 0.2 120.1 0.2 186 53.8 239.5 119.9 239.5 121.4 239.5 122.9 239.4 124.4 239.4 65.4 230.6 20.1 180.4 20.1 120.1L20.1 120.1Z"/>
</svg>
